src/pos-icons/widgets-outline.svg

<svg height="24" viewBox="0 0 24 24" width="24" xmlns="http://www.w3.org/2000/svg"><path d="m16.7 4.5 2.8 2.8-2.8 2.8-2.8-2.8zm-7.7.5v4h-4v-4zm10 10v4h-4v-4zm-2.3-13.3-5.7 5.6 5.7 5.7h-3.7v8h8v-8h-4.3l5.6-5.7zm-5.7 1.3h-8v8h8zm-2 12v4h-4v-4zm2-2h-8v8h8z"/></svg>

<?xml version="1.0" encoding="UTF-8"?><!DOCTYPE svg PUBLIC "-//W3C//DTD SVG 1.1//EN" "http://www.w3.org/Graphics/SVG/1.1/DTD/svg11.dtd"><svg xmlns="http://www.w3.org/2000/svg" xmlns:xlink="http://www.w3.org/1999/xlink" version="1.1" id="mdi-widgets-outline" width="24" height="24" viewBox="0 0 24 24"><path d="M16.7 4.5L19.5 7.3L16.7 10.1L13.9 7.3L16.7 4.5M9 5V9H5V5H9M19 15V19H15V15H19M16.7 1.7L11 7.3L16.7 13H13V21H21V13H16.7L22.3 7.3L16.7 1.7M11 3H3V11H11V3M9 15V19H5V15H9M11 13H3V21H11V13Z" /></svg>
